Papirus/24x24/panel/megasync-status-syncing.svg

<?xml version="1.0" encoding="UTF-8" standalone="no"?>
<svg xmlns:dc="http://purl.org/dc/elements/1.1/" xmlns:cc="http://creativecommons.org/ns#" xmlns:rdf="http://www.w3.org/1999/02/22-rdf-syntax-ns#" xmlns:svg="http://www.w3.org/2000/svg" xmlns="http://www.w3.org/2000/svg" version="1.1" id="svg2" height="24" viewBox="0 0 6.7733335 6.7733335" width="24">
    <metadata id="metadata20">
        <rdf:RDF>
            <cc:Work rdf:about="">
                <dc:format>
                    image/svg+xml
                </dc:format>
                <dc:type rdf:resource="http://purl.org/dc/dcmitype/StillImage"/>
                <dc:title/>
            </cc:Work>
        </rdf:RDF>
    </metadata>
    <path id="path4" d="m 3.3869423,1.1288889 c -1.2468577,0 -2.2577778,1.01092 -2.2577778,2.2577777 0,0.4532489 0.1348934,0.8742011 0.3649046,1.2281075 l 0.7474479,-1.4965494 0.016536,-0.034727 0,-0.023151 L 2.0226845,2.9247482 2.1632444,2.6805599 c 0.028504,-0.049389 0.060942,-0.095135 0.094809,-0.1400087 0.2754489,-0.3666067 0.715601,-0.58166 1.1807032,-0.5644445 0.3612445,0.013264 0.6369093,0.2518922 0.8847004,0.4994011 l 0.9558073,-0.3175 C 4.8765332,1.5390945 4.1808202,1.1294401 3.3874935,1.1294401 l -5.512e-4,-5.512e-4 z m 1.8928732,1.0302213 -0.7639843,1.5312761 0,0.0226 L 4.7512,3.8485854 4.6106404,4.0927736 C 4.5821359,4.1421628 4.5496979,4.1879093 4.5158312,4.2327827 4.2403823,4.5993893 3.8002302,4.8144427 3.335128,4.7972271 2.9738837,4.7839627 2.6982187,4.545335 2.4504276,4.2978261 L 1.4951715,4.6158768 c 0.4027311,0.6186311 1.0981752,1.0285676 1.8912196,1.0285676 1.2468578,0 2.2577778,-1.01092 2.2577778,-2.2577778 0,-0.4529811 -0.1345904,-0.8737795 -0.3643534,-1.2275564 z M 3.4282834,2.2572265 C 3.0108768,2.2417043 2.6173796,2.4593109 2.4085352,2.8211198 L 2.8974632,3.103342 C 3.0024498,2.9218731 3.1979285,2.814051 3.4073374,2.821671 c 0.1315155,0.0048 0.2507719,0.05924 0.346163,0.1422135 L 3.3930056,3.0840494 4.2804624,3.5283289 4.7241905,2.6403212 4.3322764,2.7709592 C 4.1338742,2.4658769 3.7977122,2.2713244 3.4282834,2.2577777 l 0,-5.503e-4 z M 2.4934224,3.2450043 2.0502453,4.133012 2.4421594,4.0023742 C 2.6405615,4.3074564 2.9767235,4.5020088 3.3461525,4.5155555 3.7635591,4.5310777 4.1570562,4.3134711 4.3659006,3.9516622 L 3.8769727,3.66944 C 3.771986,3.8509089 3.5765073,3.9587311 3.3670987,3.9511111 3.2355832,3.9463133 3.1157753,3.8924221 3.0203842,3.8094488 L 3.3808791,3.6892839 2.4934224,3.2450043 Z" style="opacity:1;fill:#ffffff;fill-opacity:1;fill-rule:nonzero;stroke:none"/>
    <g id="g6" transform="matrix(0.28222222,0,0,0.28222222,-4.9598351,0.81138897)">
        <g id="g10" transform="matrix(0.42297932,0,0,0.42297932,-11.083711,3.1945516)">
<!--color: #004794-->
        </g>
    </g>
    <g id="g12" style="stroke:#000000;stroke-width:1;stroke-miterlimit:4;stroke-dasharray:none;stroke-opacity:1" transform="matrix(0.28222222,0,0,0.28222222,-4.9598351,0.81138907)">
        <g id="g14" style="stroke:#000000;stroke-width:2.36400008" transform="matrix(0.42297932,0,0,0.42297932,-11.083711,3.1945516)">
<!--color: #004794-->
        </g>
    </g>
</svg>

<?xml version="1.0" encoding="UTF-8" standalone="no"?>
<svg id="svg2" xmlns:rdf="http://www.w3.org/1999/02/22-rdf-syntax-ns#" xmlns="http://www.w3.org/2000/svg" height="24" viewBox="0 0 6.7733335 6.7733335" width="24" version="1.1" xmlns:cc="http://creativecommons.org/ns#" xmlns:dc="http://purl.org/dc/elements/1.1/">
 <metadata id="metadata20">
  <rdf:RDF>
   <cc:Work rdf:about="">
    <dc:format>image/svg+xml</dc:format>
    <dc:type rdf:resource="http://purl.org/dc/dcmitype/StillImage"/>
    <dc:title/>
   </cc:Work>
  </rdf:RDF>
 </metadata>
 <path id="path4" d="m3.3869 1.1289c-1.2469 0-2.2578 1.0109-2.2578 2.2578 0 0.45325 0.13489 0.8742 0.3649 1.2281l0.74745-1.4965 0.016536-0.034727v-0.023151l-0.2353-0.1357 0.1405-0.2441c0.028504-0.049389 0.060942-0.095135 0.094809-0.14001 0.27545-0.36661 0.7156-0.58166 1.1807-0.56444 0.36124 0.013264 0.63691 0.25189 0.8847 0.4994l0.95581-0.3175c-0.4027-0.619-1.0984-1.0287-1.8917-1.0287l-0.0005512-0.0005512zm1.8929 1.0302-0.76398 1.5313v0.0226l0.2354 0.1356-0.1406 0.2442c-0.0285 0.0494-0.0609 0.0951-0.0948 0.14-0.2754 0.3666-0.7156 0.5816-1.1807 0.5644-0.3612-0.0132-0.6369-0.2519-0.8847-0.4994l-0.9552 0.3181c0.40273 0.61863 1.0982 1.0286 1.8912 1.0286 1.2469 0 2.2578-1.0109 2.2578-2.2578 0-0.45298-0.13459-0.87378-0.36435-1.2276zm-1.8515 0.0981c-0.4174-0.0155-0.8109 0.2021-1.0198 0.5639l0.489 0.2822c0.1049-0.1814 0.3004-0.2892 0.5098-0.2816 0.13152 0.0048 0.25077 0.05924 0.34616 0.14221l-0.3605 0.1201 0.8875 0.4443 0.4437-0.888-0.3919 0.1307c-0.1984-0.3051-0.5346-0.4997-0.904-0.5132v-0.0005503zm-0.9349 0.9878-0.4432 0.888 0.392-0.1306c0.1984 0.3051 0.5345 0.4996 0.904 0.5132 0.4174 0.0155 0.8109-0.2021 1.0197-0.5639l-0.4889-0.2823c-0.105 0.1815-0.3005 0.2893-0.5099 0.2817-0.1315-0.0048-0.2513-0.0587-0.3467-0.1417l0.3605-0.1201-0.8875-0.4443z" fill="#fff"/>
 <g id="g6" transform="matrix(.28222 0 0 .28222 -4.9598 .81139)">
  <g id="g10" transform="matrix(.42298 0 0 .42298 -11.084 3.1946)"><!--color: #004794--></g>
 </g>
 <g id="g12" transform="matrix(.28222 0 0 .28222 -4.9598 .81139)" stroke="#000">
  <g id="g14" stroke-width="2.364" stroke="#000" transform="matrix(.42298 0 0 .42298 -11.084 3.1946)"><!--color: #004794--></g>
 </g>
</svg>
